X: 71
T: My Darling Asleep
R: jig
Z: 2012 John Chambers <jc@trillian.mit.edu>
B: "100 Essential Irish Session Tunes" 1995 Dave Mallinson, ed.
M: 6/8
L: 1/8
K: D
e |\
"D"fdd "A"cAA | "G"BGG "A7"A2G | "D"FAA def | "Em"gfg "A7"eaa |\
"D"fdd "A"cAA | "G"BGG "A7"A2G | "D"FAA def | "A7"gec "D"d2 :|
|: A/G/ |\
"D"FAA Add | FAA "G"BGG | "D"FAA def | "Em"gfg "A7"eaa |\
"D"fdd "A"cAA | "G"BGG "A7"A2G | "D"FAA def | "A7"gec "D"d2 :|

%%sep 2 1 500
%%sep 1 1 500

